assets/icons/meetup-icon.svg

<?xml version="1.0" encoding="UTF-8"?>
<svg width="57px" height="42px" viewBox="0 0 57 42" version="1.1" xmlns="http://www.w3.org/2000/svg" xmlns:xlink="http://www.w3.org/1999/xlink">
    <!-- Generator: Sketch 50.2 (55047) - http://www.bohemiancoding.com/sketch -->
    <title>meetup icon</title>
    <desc>Created with Sketch.</desc>
    <defs></defs>
    <g id="Design" stroke="none" stroke-width="1" fill="none" fill-rule="evenodd">
        <g id="Open-page-V2" transform="translate(-262.000000, -608.000000)">
            <g id="Meetup-card" transform="translate(230.000000, 576.000000)">
                <g id="meetup-icon" transform="translate(32.000000, 32.000000)">
                    <polygon id="Triangle" fill="#FB004F" points="27.8888889 10 52.7777778 42 3 42"></polygon>
                    <path d="M27.6951585,30.2436878 L1.29997683,10.3483903 L1.29997683,12.948344 L28.0908036,33.1262451 L55.1077132,12.7787818 C55.2772754,12.6092196 55.5598791,12.6092196 55.785962,12.7222611 C56.0120449,12.7787818 56.1250864,13.0048647 56.1250864,13.2874684 L56.1250864,41.378272 C56.1250864,41.7173963 55.8424828,42 55.5033584,42 C55.164234,42 54.8251096,41.7173963 54.8251096,41.378272 L54.8251096,14.5309245 L28.429928,34.426222 L28.429928,34.4827427 L28.3734072,34.4827427 C28.3168865,34.5392634 28.3168865,34.5392634 28.2603658,34.5392634 L27.8081999,34.5392634 L27.8081999,34.4827427 L27.6951585,34.4827427 L27.6951585,34.426222 L0.282603658,13.796155 C0.113041463,13.6831135 0,13.4570306 0,13.2874684 L0,9.04841352 C0,8.82233059 0.113041463,8.59624766 0.339124389,8.4832062 C0.565207315,8.37016474 0.847810973,8.42668547 1.01737317,8.53972693 L28.0908036,28.8871903 L54.8251096,8.76580986 L54.8251096,6.16585621 L28.429928,26.004633 L28.429928,26.0611537 L28.3734072,26.0611537 C28.3168865,26.1176744 28.3168865,26.1176744 28.2603658,26.1176744 L28.1473243,26.1176744 L28.1473243,26.1741952 L28.0342828,26.1741952 C28.0342828,26.1741952 27.9777621,26.1741952 27.9777621,26.1176744 L27.8081999,26.1176744 L27.8081999,26.0611537 L27.6951585,26.0611537 L27.6951585,26.004633 L0.282603658,5.37456597 C0.113041463,5.2615245 0,5.03544158 0,4.86587938 L0,0.626824518 C0,0.400741592 0.113041463,0.174658666 0.339124389,0.0616172027 C0.565207315,-0.0514242603 0.847810973,0.00509647118 1.01737317,0.118137934 L28.0908036,20.522122 L55.1077132,0.118137934 C55.3903169,-0.0514242603 55.785962,0.00509647118 56.0120449,0.287700129 C56.2381279,0.570303787 56.1816071,0.965948907 55.8990035,1.1355111 L28.429928,21.8220988 L28.3734072,21.8786196 L28.2603658,21.8786196 L28.2603658,21.9351403 L27.8647206,21.9351403 L27.8081999,21.8786196 L27.7516792,21.8786196 L27.7516792,21.8220988 L27.6951585,21.8220988 L1.29997683,1.92680134 L1.29997683,4.52675499 L28.0908036,24.7046562 L55.1077132,4.3571928 C55.2772754,4.1876306 55.5598791,4.1876306 55.785962,4.30067207 C56.0120449,4.41371353 56.1250864,4.63979646 56.1250864,4.86587938 L56.1250864,9.04841352 C56.1250864,9.27449644 56.0685657,9.44405864 55.8990035,9.5571001 L28.429928,30.2436878 L28.3734072,30.2436878 L28.3734072,30.3002086 L28.2603658,30.3002086 C28.2603658,30.3567293 28.203845,30.3567293 28.1473243,30.3567293 L27.9212414,30.3567293 C27.9212414,30.3567293 27.8647206,30.3567293 27.8647206,30.3002086 L27.7516792,30.3002086 L27.7516792,30.2436878 L27.6951585,30.2436878 Z M51.7729901,19.5047488 C52.0555937,19.3351867 52.4512389,19.3917074 52.6773218,19.674311 C52.9034047,19.9569147 52.846884,20.3525598 52.5642803,20.5786427 L28.429928,38.6652768 L28.3734072,38.6652768 C28.3734072,38.7217976 28.3734072,38.7217976 28.3168865,38.7217976 L28.2603658,38.7217976 C28.2603658,38.7783183 28.203845,38.7783183 28.1473243,38.7783183 L27.9212414,38.7783183 L27.8647206,38.7217976 L27.7516792,38.7217976 L27.7516792,38.6652768 L27.6951585,38.6652768 L1.29997683,18.7699793 L1.29997683,41.378272 C1.29997683,41.7173963 1.01737317,42 0.621728047,42 C0.282603658,42 0,41.7173963 0,41.378272 L0,17.4700025 C0,17.2439196 0.113041463,17.0178367 0.339124389,16.9047952 C0.565207315,16.7917537 0.847810973,16.7917537 1.01737317,16.9613159 L28.0908036,37.3087793 L51.7729901,19.5047488 Z" id="M" fill="#1C2A43"></path>
                </g>
            </g>
        </g>
    </g>
</svg>

<svg xmlns="http://www.w3.org/2000/svg" width="57" height="42" viewBox="0 0 57 42">
    <g fill="none" fill-rule="evenodd">
        <path fill="#FFF" d="M27.889 10l24.889 32H3z"/>
        <path fill="#1C2A43" d="M27.695 30.244L1.3 10.348v2.6l26.79 20.178L55.109 12.78c.17-.17.452-.17.678-.057.226.057.34.283.34.565v28.091c0 .34-.284.622-.623.622s-.678-.283-.678-.622V14.531L28.43 34.426v.057h-.057c-.056.056-.056.056-.113.056h-.452v-.056h-.113v-.057L.283 13.796A.674.674 0 0 1 0 13.287V9.048c0-.226.113-.452.34-.565.225-.113.508-.056.677.057l27.074 20.347L54.825 8.766v-2.6L28.43 26.005v.056h-.057c-.056.057-.056.057-.113.057h-.113v.056h-.113s-.056 0-.056-.056h-.17v-.057h-.113v-.056L.283 5.375A.674.674 0 0 1 0 4.865V.628C0 .4.113.175.34.062c.225-.113.508-.057.677.056l27.074 20.404L55.108.118a.705.705 0 0 1 .904.17c.226.282.17.678-.113.848l-27.47 20.686-.056.057h-.113v.056h-.395l-.057-.056h-.056v-.057h-.057L1.3 1.927v2.6l26.79 20.178L55.109 4.357c.17-.17.452-.17.678-.056.226.113.34.339.34.565v4.182c0 .226-.057.396-.227.51l-27.47 20.686h-.056v.056h-.113c0 .057-.056.057-.113.057h-.226s-.056 0-.056-.057h-.113v-.056h-.057zm24.078-10.74a.705.705 0 0 1 .904.17.637.637 0 0 1-.113.905L28.43 38.665h-.057c0 .057 0 .057-.056.057h-.057c0 .056-.056.056-.113.056h-.226l-.056-.056h-.113v-.057h-.057L1.3 18.77v22.608c0 .34-.283.622-.678.622A.627.627 0 0 1 0 41.378V17.47c0-.226.113-.452.34-.565.225-.113.508-.113.677.056L28.091 37.31l23.682-17.804z"/>
    </g>
</svg>
